!!!COM: Bach, Johann Sebastian
!!!OPR: Das wohltemperirte Clavier, Band I
!!!XEN: The Well-Tempered Clavier, Volume I
!!!OTL: Prelude in C-sharp Minor
!!!OMV: Prelude IV
!!!SCT: BWV 849
!!!SCA: Thematisch-systematisches Verzeichnis der musikalischen Werke Johann Sebastian Bach: Bach-Werke-Verzeichnis (Schmieder)
!!!YOR: Bach Gesellschaft Edition xiv
!!!ENC: Walter Hewlett
!!!CDT: 1685/3//-1750/7/28/
!!!OCY: Deutschland
!!!YEC: Copyright (c) 1994, 2000 Center for Computer Assisted Research in the Humanities
!!!YEM: Rights to all derivative editions reserved
!!!YEN: United States of America
**kern	**kern	**kern	**kern
*k[f#c#g#d#]	*k[f#c#g#d#]	*k[f#c#g#d#]	*k[f#c#g#d#]
*c#:	*c#:	*c#:	*c#:
*M6/4	*M6/4	*M6/4	*M6/4
*MM92	*MM92	*MM92	*MM92
=1-	=1-	=1-	=1-
8g#/L	2.ryy	1.ryy	[1.C#\
8f#/	.	.	.
8e/	.	.	.
8d#/	.	.	.
8e/	.	.	.
8c#/J	.	.	.
4.cc#/	2g#\ 2e\	.	.
8b/	.	.	.
4a/	4f#\	.	.
=2	=2	=2	=2
!!(8aP/	.	.	.
[2.g#t/)	[2.e\	8G#/L	1.C#\]
.	.	8F#/	.
.	.	8E/	.
.	.	8D#/	.
.	.	8E/	.
.	.	8C#/J	.
!!.	.	(8EP/L	.
!!.	.	8G#P/J	.
2g#/]	2e\]	4.c#/)	.
.	.	8B/	.
4f#/	[4f#\	4A/	.
=3	=3	=3	=3
8dd#/L	2.f#\]	[2.G#/	[2.BB#\
8cc#/	.	.	.
8b#/	.	.	.
8a#/	.	.	.
8b#/	.	.	.
8g#/J	.	.	.
4.gg#/	2dd#\ 2g#\	2G#/]	2BB#\]
8ff#/	.	.	.
4ee/	4cc#\ 4g#\	4c#/	4C#\
=4	=4	=4	=4
!!(8eeP/	.	.	.
[2.dd#/)	[2.b#\ [2.g#\	8d#/L	[1.G#\
.	.	8c#/	.
.	.	8B#/	.
.	.	8A#/	.
.	.	8B#/	.
.	.	8G#/J	.
!!.	.	(8B#P/L	.
!!.	.	8d#P/J	.
2dd#/]	2b#\] 2g#\]	4.f#/)	.
.	.	8e/	.
4gg#/	4b#\ 4g#\	4d#/	.
=5	=5	=5	=5
(16dd#/	4a\	2.e/	2.G#\]
16cc#/L)	.	.	.
8b#/	.	.	.
8cc#/	4r	.	.
8ee/J	.	.	.
[4aa/	4r	.	.
8aa/L]	2.a\	[2.d#/	[2.F#\
8gg#/	.	.	.
8ff#/	.	.	.
8ee/	.	.	.
8dd#/	.	.	.
8cc#/J	.	.	.
=6	=6	=6	=6
(16cc#/	4g#\	2.d#/]	2.F#\]
16b/L)	.	.	.
8a/	.	.	.
8b/	4r	.	.
8dd#/J	.	.	.
[4gg#/	4r	.	.
8gg#/L]	2.g#\	[2.c#/	[2.E\
8ff#/	.	.	.
8ee/	.	.	.
8dd#/	.	.	.
8cc#/	.	.	.
8b/J	.	.	.
=7	=7	=7	=7
(16b/	4f#\	2.c#/]	2.E\]
16a/L)	.	.	.
8g#/	.	.	.
8a/	4r	.	.
8cc#/J	.	.	.
[4ff#/	4r	.	.
8ff#/L]	2.f#\	[2.B/	2.D#\
8ee/	.	.	.
8dd#/	.	.	.
8cc#/	.	.	.
8b/	.	.	.
8a/J	.	.	.
=8	=8	=8	=8
[2.g#t/	2.e\	8B/L]	1.E\
.	.	8A/	.
.	.	8G#/	.
.	.	8F#/	.
.	.	8G#/	.
.	.	8E/J	.
!!.	.	(8G#P/L	.
!!.	.	8BP/J	.
4.g#/]	2.ryy	4.e/)	.
8f#/	.	8d#/	.
[4aM/	.	4c#/	.
=9	=9	=9	=9
8a/L]	1.ryy	[1.B#/	2.D#\
8g#/	.	.	.
8f#/	.	.	.
8e/	.	.	.
8f#/	.	.	.
8d#/J	.	.	.
8dd#\L	.	.	4.G#\
8cc#\	.	.	.
8b#\	.	.	.
8a#\	.	.	8F#\
8b#\	.	.	4G#\
8g#\J	.	.	.
=10	=10	=10	=10
8aa\L	2.ryy	4.B#/]	[2.C#\
8gg#\	.	.	.
8ff#\	.	.	.
8ee\	.	8c#/	.
8ff#\	.	4d#/	.
8dd#\J	.	.	.
[2.ee/	8r	2.c#/	4.C#\]
.	8dd#\L	.	.
.	8cc#\	.	.
.	8b\	.	8D#\
.	8cc#\	.	4E\
.	8a#\J	.	.
=11	=11	=11	=11
4.ee/]	(8g#/	1.ryy	8AA#/L
.	4f##\)	.	8D#/
.	.	.	8C#/
8dd#/	8g#\	.	8BB/
4cc#/	4a#M\	.	8C#/
.	.	.	8AA#/J
4.cc#/	4.d#\	.	8FF##/L
.	.	.	8BB/
.	.	.	8AA#/
8b/	8e#\	.	8GG#/
4a#/	[4f##m\	.	8AA#/
.	.	.	8FF##/J
=12	=12	=12	=12
8a#/L	8f##\]	1.ryy	[2.CC#/
8g#/	8ryy	.	.
8f##/	4ryy	.	.
8e#/	.	.	.
8f##/	4ryy	.	.
8d#/J	.	.	.
[2.dd#/	2a#\ 2f##\	.	8CC#/L]
.	.	.	8C#/
.	.	.	8BB/
.	.	.	8AA#/
.	[4g#\	.	8BB/
.	.	.	8GG#/J
=13	=13	=13	=13
8dd#/L]	2.g#\_	2.ryy	4.Em\
8b#/	.	.	.
8cc#/	.	.	.
8dd#/	.	.	8D#\
8ee/	.	.	4C#\
8dd#/J	.	.	.
(8cc#/	2g#\]	[2.D#/	2D#\
4bnp/)	.	.	.
8cc#/	.	.	.
4a#S/	4f##\	.	4DD#\
=14	=14	=14	=14
[2.g#/	[2.d#\ [2.B\	8D#/L]	[2.GG#\
.	.	8C#/	.
.	.	8BB/	.
.	.	8AA#/	.
.	.	8BB/	.
.	.	8GG#/J	.
2g#/]	2d#\] 2B\]	8BB/L	2.GG#\]
.	.	8D#/	.
.	.	8G#/	.
.	.	8E/	.
[4bM\	4ryy	8F#/	.
.	.	8D#/J	.
=15	=15	=15	=15
8b\L]	1.ryy	2.E/	8C#\L
8g#\	.	.	8D#\
8a#\	.	.	8C#\
8cc#\J	.	.	8BB\
[4ee\	.	.	8C#\
.	.	.	[8AA#\J
8ee\L]	.	4.F#M/	2.AA#\]
8dd#\	.	.	.
8ee\	.	.	.
8gg#\J	.	8G#/	.
4ff#\	.	4A#/	.
=16	=16	=16	=16
[2.dd#/	2ryy	8r	[2.BM\
.	.	8cc#\L	.
.	.	8b\	.
.	.	8a#\	.
.	[4b/	8b\	.
.	.	[8f#\J	.
!	! B4     4      2 h     u1	!	!
2dd#/ 2b]	4ryy	2.f#\_ 2.d#	8B\L]
.	.	.	8B\
.	2ryy	.	8A\
.	.	.	8G#\
[4cc#/	.	.	8A\
.	.	.	8F#\J
=17	=17	=17	=17
8cc#/L]	4f#\	2ryy	8D#\L
8a#/	.	.	8E\
8b#/	4ryy	.	8D#\
8dd#/	.	.	8C#\
8ff#/	4ryy	[4D#/	8D#\
8gg#/J	.	.	8BB#\J
8aan\L	2.ryy	2.D#/]	4.GG#\
8gg#\	.	.	.
8ff#\	.	.	.
8ee\	.	.	8AA#\
8ff#\	.	.	4BB#\
8dd#\J	.	.	.
=18	=18	=18	=18
[2.ee/	2ryy	8r	[2.C#/
.	.	8dd#\L	.
.	.	8cc#\	.
.	.	8b#\	.
.	[4cc#/	8cc#\	.
.	.	[8g#\J	.
!	! C#5    6      2 h.    u1	!	!
2.ee/ 2.cc#_	2.ryy	2.g#\] 2.e	8C#\L]
.	.	.	8D#\
.	.	.	8E\
.	.	.	8F#\
.	.	.	8G#\
.	.	.	8A\J
=19	=19	=19	=19
8ee\L]	1.ryy	4r	[2B\
8ddn\	.	.	.
8ee#\	.	8r	.
8gg#\J	.	8c#/	.
[4bb\	.	[4dn/	8B\L]
.	.	.	8B\J
8bb\L]	.	4d/]	2.E#\
8ddn\	.	.	.
8cc#\	.	4G#/	.
8b\	.	.	.
8a\	.	[4c#/	.
8g#\J	.	.	.
=20	=20	=20	=20
[2.aM/	1.ryy	8c#/L]	1.F#\
.	.	8B/	.
.	.	8A/	.
.	.	8G#/	.
.	.	8A/	.
.	.	8F#/J	.
8a/L]	.	4.f#\]	.
8g#/	.	.	.
8a/	.	.	.
8cc#/J	.	8e\L	.
[4ff#/	.	8d#\	.
.	.	8c#\J	.
=21	=21	=21	=21
8ff#/L]	1.ryy	4.B/	4.G#\
8ee/	.	.	.
8dd#/	.	.	.
8cc#/	.	8c#/	8A\
8b/	.	[4d#/	4B\
8a/J	.	.	.
(16a/	.	4.d#/]	[2.E\
16g#/L)	.	.	.
8f#/	.	.	.
8g#/	.	.	.
8b/J	.	8G#/L	.
[4ee/	.	8c#/	.
.	.	8B#/J	.
=22	=22	=22	=22
8ee/L]	1.ryy	[2.c#M/	4.E\]
8dd#/	.	.	.
8cc#/	.	.	.
8b/	.	.	8D#\
8a/	.	.	4C#\
8g#/J	.	.	.
(16g#/	.	4.c#/]	2.D#\
16f#/L)	.	.	.
8e/	.	.	.
8f#/	.	.	.
8a/J	.	8B#/L	.
[4dd#/	.	8c#/	.
.	.	8A#/J	.
=23	=23	=23	=23
8dd#/L]	1.ryy	4.B#M/	4.G#\
8cc#/	.	.	.
8b#/	.	.	.
8a#/	.	8c#/	8A#\
8g#/	.	4d#/	4B#\
8f#/J	.	.	.
(16f#/	.	2.c#/	4.c#\
16ep/L)	.	.	.
8d#/	.	.	.
8e/	.	.	.
8g#/J	.	.	8Bn\L
[4cc#/	.	.	8An\
.	.	.	8G#\J
=24	=24	=24	=24
8cc#/L]	1.ryy	4.A/	[2.F#\
8b/	.	.	.
8a/	.	.	.
8g#/	.	8B/	.
8a/	.	4c#/	.
8f#/J	.	.	.
8ff#\L	.	2.dnM/	4.F#\]
8ee\	.	.	.
8ddn\	.	.	.
8cc#\	.	.	8E\
8dd\	.	.	4F#\
8a\J	.	.	.
=25	=25	=25	=25
8aa\L	2.ryy	2.B#/	4.D#\
8gg#\	.	.	.
8ff#\	.	.	.
8ee\	.	.	8F#\
8ff#\	.	.	[4A\
[8dd#\J	.	.	.
2bb#/	[2.dd#\	4f#/	8A\L]
.	.	.	8G#\
.	.	4r	8F#\
.	.	.	8E\
4gg#/	.	4r	8F#\
.	.	.	8D#\J
=26	=26	=26	=26
[2.gg#/	4.dd#\]	1.ryy	8E\L
.	.	.	8D#\
.	.	.	8C#\
.	8ee\	.	8BB\
.	4b#\	.	8C#\
.	.	.	8AA\J
8gg#/L]	2.cc#\_	.	[2.AM\
8ff#/	.	.	.
8ee/	.	.	.
8dd#/]	.	.	.
8ee/	.	.	.
8cc#/J	.	.	.
=27	=27	=27	=27
[2.ff#/	4.cc#\]	1.ryy	8A\L]
.	.	.	8G#\
.	.	.	8F#\
.	8b#\	.	8E\
.	4dd#\	.	8F#\
.	.	.	8D#\J
8ff#/L]	[2.g#\	.	2.B#M\
8ee/	.	.	.
8dd#/	.	.	.
8cc#/	.	.	.
8dd#/	.	.	.
8g#/J	.	.	.
=28	=28	=28	=28
[2.ee/	4.g#\]	1.ryy	8c#\L
.	.	.	8Bn\
.	.	.	8A\
.	8cc#\L	.	8G#\
.	8f#\	.	8A\
.	8g#\J	.	8F#\J
8ee/L]	2.a\	.	[2.f#\
8dd#/	.	.	.
8ee/	.	.	.
8ff#/	.	.	.
8gg#/	.	.	.
8aa/J	.	.	.
=29	=29	=29	=29
4.b#t/	2.g#\	1.ryy	8f#\L]
.	.	.	8e\
.	.	.	8d#\
8cc#/	.	.	8c#\
4dd#/	.	.	8B#\
.	.	.	8A#\J
[2.f#/	2.d#\ 2.B#\	.	8G#\L
.	.	.	8F#\
.	.	.	8E\
.	.	.	8D#\
.	.	.	8C#\
.	.	.	8BBn\J
=30	=30	=30	=30
8f#/L]	1.ryy	1.ryy	4.AA/
8e/	.	.	.
8d#/	.	.	.
8c#/	.	.	8BB/
8d#/	.	.	4GG#/
8B#/J	.	.	.
8a/L	.	.	4.FF#/
8g#/	.	.	.
8f#/	.	.	.
8e/	.	.	8GG#/
8f#/	.	.	4EE/
8d#/J	.	.	.
=31	=31	=31	=31
8b#/L	1.ryy	1.ryy	4.DD#/
8an/	.	.	.
8g#/	.	.	.
8f#/	.	.	8EE/
8g#/	.	.	4FF#/
8d#/J	.	.	.
8dd#\L	.	.	4.BBB#/
8cc#\	.	.	.
8b#\	.	.	.
8a#\	.	.	8DD#/
8b#\	.	.	4FF#/
8g#\J	.	.	.
=32	=32	=32	=32
4gg#\	1.ryy	1.ryy	8EE\L
.	.	.	8E\
8ff#\L	.	.	8F#\
8ee\	.	.	8G#\
8dd#\	.	.	8A\
8cc#\J	.	.	8F#\J
8b#\L	.	.	8D#\L
8cc#\	.	.	8E\
8dd#\	.	.	8F#\
8ff#\J	.	.	8D#\
[4a/	.	.	8BB#\
.	.	.	8C#\J
=33	=33	=33	=33
8a/L]	1.ryy	1.ryy	8D#\L
8g#/	.	.	8BB#\
8a/	.	.	8GG#\
8f#/J	.	.	8AA#\
[4aa\	.	.	8BB#\
.	.	.	8C#\J
4aa\]	.	.	8D#\L
.	.	.	8E\
8gg#\L	.	.	8F#\
8ff#\	.	.	8G#\
8ee\	.	.	8A#\
8dd#\J	.	.	8B#\J
=34	=34	=34	=34
[2ee/	8r	2.ryy	8c#\L
.	8dd#\L	.	8Bn\
.	8cc#\	.	8An\
.	8b#\J	.	8G#\
8ee/L]	4cc#\	.	8A\
8aa/J	.	.	8F#\J
4.ee/	2cc#\	[2.G#/	2G#\
8ff#/	.	.	.
4dd#S/	4b#\	.	4GG#\
=35	=35	=35	=35
[2.cc#/	8r	8G#/L]	[2.AA#\
.	8b\L]	8G#/	.
.	8a#\	8F##/	.
.	8g#\	8G#/	.
.	8f##\	8A#/	.
.	8g#\J	8D#/J	.
!	! (8g#P/	!	!
4.cc#/]	[2.f##p\)	[2.E/	4.AA#\]
8ee/	.	.	8BB\
4dd#/	.	.	4C#\
=36	=36	=36	=36
[2.ee/	8f##\L]	8E/L]	[2.FF##\
.	8g#\	8D#/	.
.	(8a#\	8C#/	.
.	8g#\)	8BB/	.
.	(8b\	8C#/	.
.	8a#\J)	8E/J	.
4.ee/]	[2.a#\	2.F##/	4.FF##\]
8b#/	.	.	8GG#\
[4cc#/	.	.	4AA#\
=37	=37	=37	=37
*^	*	*	*
[2.ff##/	8cc#/L	8a#\	1.ryy	2DD#/
.	8dd#/	8ryy	.	.
.	8ee/	4ryy	.	.
.	8dd#/	.	.	.
.	8cc#/	4ryy	.	4r
.	8b/J	.	.	.
2ff##/]	2ryy	8a#\L	.	2.r
.	.	8g#\	.	.
.	.	8f##\	.	.
.	.	8e#\	.	.
4gg#/	4b#/	8f#\	.	.
.	.	8d#\J	.	.
=38	=38	=38	=38	=38
2.cc#/_	2.ryy	8en\L	2.ryy	8r
.	.	8bn\	.	8d#\L
.	.	8an\	.	8c#\
.	.	8g#\	.	8B\
.	.	8f#\	.	8A\
.	.	8a\J	.	8F#\J
4.cc#/]	2ryy	4.e\	2ryy	8G#\L
.	.	.	.	8D#\
.	.	.	.	8E\
8dd#/	.	8f#\	.	8C#\J
4b#/	8d#/L	4d#\	8GG#/L	4GG#\
.	[8f#/J	.	[8G#/J	.
=39	=39	=39	=39	=39
[2cc#/	8f#/L]	2c#\	4G#/]	[2.C#\
.	8g#/	.	.	.
.	8a/	.	4F#/	.
.	[8f#/J	.	.	.
8cc#/L]	4f#/]	4d#\	4A/	.
8b#/J	.	.	.	.
2.cc#/	2.g#/	2.e#\	2.G#/	2.C#\]
==|!	==|!	==|!	==|!	==|!
*-	*-	*-	*-	*-
!!!RWG: Appoggiaturas of spine '' need manual editing in measures: 2, 2, 4, 4, 8, 35
!!!END: 1994/01/08/
!!!KEY: 3053491700
!!!EMD: Converted from MuseData to Humdrum Dec 19, 2000, by Andreas Kornstaedt using muse2kern.
